icons/1_Primary/ESEA.svg

<svg xmlns="http://www.w3.org/2000/svg" width="1024" height="1024" fill="none">
   <g clip-path="url(#a)">
      <path fill="#71A372" d="M512 1024c282.77 0 512-229.23 512-512S794.77 0 512 0 0 229.23 0 512s229.23 512 512 512Z"/>
      <path fill="#fff" d="m585.95 274.94-121.6 160.8L251 439l139 106.51-114.15 164L478.21 612l136.11 103V545.51L823 442.46l-411.25 95.85c18.62-19.813 31.247-35.343 37.88-46.59 6.633-11.246 11.533-25.436 14.7-42.57l133.28-3.58-11.66-170.63Z"/>
   </g>
   <defs>
      <clipPath id="a">
         <path fill="#fff" d="M0 0h1024v1024H0z"/>
      </clipPath>
   </defs>
</svg>

<svg width="1024" height="1024" viewBox="0 0 1024 1024" fill="none" xmlns="http://www.w3.org/2000/svg">
<g clip-path="url(#clip0_2_2103)">
<path d="M512 1024C794.77 1024 1024 794.77 1024 512C1024 229.23 794.77 0 512 0C229.23 0 0 229.23 0 512C0 794.77 229.23 1024 512 1024Z" fill="#71A372"/>
<path d="M585.95 274.94L464.35 435.74L251 439L390 545.51L275.85 709.51L478.21 612L614.32 715V545.51L823 442.46L411.75 538.31C430.37 518.497 442.997 502.967 449.63 491.72C456.263 480.474 461.163 466.284 464.33 449.15L597.61 445.57L585.95 274.94Z" fill="white"/>
</g>
<defs>
<clipPath id="clip0_2_2103">
<rect width="1024" height="1024" fill="white"/>
</clipPath>
</defs>
</svg>
